ix/notification-status_bold.svg

<svg viewBox="0 0 24 24" fill="none" xmlns="http://www.w3.org/2000/svg" height="1em" width="1em">
  <path d="M19 8a3 3 0 1 0 0-6 3 3 0 0 0 0 6Z" fill="#292D32"/>
  <path d="M19.8 9.42c-.02 0-.04.01-.06.01-.1.02-.2.03-.31.05-.42.04-.87.02-1.33-.07-.12-.03-.22-.05-.33-.09-.33-.08-.64-.21-.93-.38-.12-.06-.24-.14-.35-.21-.48-.33-.89-.74-1.22-1.22-.07-.11-.15-.23-.21-.35-.17-.29-.3-.6-.38-.93-.04-.11-.06-.21-.09-.33a4.65 4.65 0 0 1-.07-1.33c.02-.11.03-.21.05-.31 0-.02.01-.04.01-.06A1 1 0 0 0 13.6 3H7.52c-.14 0-.28.01-.41.02-.12.01-.23.02-.35.04-.12.01-.24.03-.35.05-2.41.35-3.95 1.88-4.3 4.3-.02.11-.04.23-.05.35-.02.12-.03.23-.04.35-.01.13-.02.27-.02.41v7.96c0 .14.01.28.02.41.01.12.02.23.04.35.01.12.03.24.05.35.35 2.42 1.89 3.95 4.3 4.3.11.02.23.04.35.05.12.02.23.03.35.04.13.01.27.02.41.02h7.96c.14 0 .28-.01.41-.02.12-.01.23-.02.35-.04.12-.01.24-.03.35-.05 2.41-.35 3.95-1.88 4.3-4.3.02-.11.04-.23.05-.35.02-.12.03-.23.04-.35.01-.13.02-.27.02-.41V10.4a1 1 0 0 0-1.2-.98ZM6.75 12.5h5c.41 0 .75.34.75.75s-.34.75-.75.75h-5c-.41 0-.75-.34-.75-.75s.34-.75.75-.75Zm9 5.5h-9c-.41 0-.75-.34-.75-.75s.34-.75.75-.75h9c.41 0 .75.34.75.75s-.34.75-.75.75Z" fill="#292D32"/>
</svg>

<svg viewBox="0 0 24 24" fill="none" xmlns="http://www.w3.org/2000/svg" height="1em" width="1em">
  <path d="M19 8C20.6569 8 22 6.65685 22 5C22 3.34315 20.6569 2 19 2C17.3431 2 16 3.34315 16 5C16 6.65685 17.3431 8 19 8Z" fill="#292D32"/>
  <path d="M19.8 9.42C19.78 9.42 19.76 9.43 19.74 9.43C19.64 9.45 19.54 9.46 19.43 9.48C19.01 9.52 18.56 9.5 18.1 9.41C17.98 9.38 17.88 9.36 17.77 9.32C17.44 9.24 17.13 9.11 16.84 8.94C16.72 8.88 16.6 8.8 16.49 8.73C16.01 8.4 15.6 7.99 15.27 7.51C15.2 7.4 15.12 7.28 15.06 7.16C14.89 6.87 14.76 6.56 14.68 6.23C14.64 6.12 14.62 6.02 14.59 5.9C14.5 5.44 14.48 4.99 14.52 4.57C14.54 4.46 14.55 4.36 14.57 4.26C14.57 4.24 14.58 4.22 14.58 4.2C14.7 3.58 14.24 3 13.6 3H7.52C7.38 3 7.24 3.01 7.11 3.02C6.99 3.03 6.88 3.04 6.76 3.06C6.64 3.07 6.52 3.09 6.41 3.11C4 3.46 2.46 4.99 2.11 7.41C2.09 7.52 2.07 7.64 2.06 7.76C2.04 7.88 2.03 7.99 2.02 8.11C2.01 8.24 2 8.38 2 8.52V16.48C2 16.62 2.01 16.76 2.02 16.89C2.03 17.01 2.04 17.12 2.06 17.24C2.07 17.36 2.09 17.48 2.11 17.59C2.46 20.01 4 21.54 6.41 21.89C6.52 21.91 6.64 21.93 6.76 21.94C6.88 21.96 6.99 21.97 7.11 21.98C7.24 21.99 7.38 22 7.52 22H15.48C15.62 22 15.76 21.99 15.89 21.98C16.01 21.97 16.12 21.96 16.24 21.94C16.36 21.93 16.48 21.91 16.59 21.89C19 21.54 20.54 20.01 20.89 17.59C20.91 17.48 20.93 17.36 20.94 17.24C20.96 17.12 20.97 17.01 20.98 16.89C20.99 16.76 21 16.62 21 16.48V10.4C21 9.76 20.42 9.3 19.8 9.42ZM6.75 12.5H11.75C12.16 12.5 12.5 12.84 12.5 13.25C12.5 13.66 12.16 14 11.75 14H6.75C6.34 14 6 13.66 6 13.25C6 12.84 6.34 12.5 6.75 12.5ZM15.75 18H6.75C6.34 18 6 17.66 6 17.25C6 16.84 6.34 16.5 6.75 16.5H15.75C16.16 16.5 16.5 16.84 16.5 17.25C16.5 17.66 16.16 18 15.75 18Z" fill="#292D32"/>
</svg>
